X:126
T:Hen Wr Pencader - The Old Man of Pencader
M:2/4
L:1/8
Q:220
C:Ceri Rhys Matthews
R:Processional
K:D
A>G F/G/A | G>F E/F/G | F>E D/E/F | E2 E2 | A>G F/G/A | G
>F EA | GF EE | D2 D2 :||: D/E/F/G/ A>B | A/B/A/G/ FA | G
F GA | BA F2 | D/E/F/G/ A>B | A/B/A/G/ FA | GF E/D/C |
D2 D2 :||
